svg/color/kick.svg

<?xml version="1.0" encoding="UTF-8" ?>
<!DOCTYPE svg PUBLIC "-//W3C//DTD SVG 1.1//EN" "http://www.w3.org/Graphics/SVG/1.1/DTD/svg11.dtd">
<svg width="250pt" height="250pt" viewBox="0 0 250 250" version="1.1" xmlns="http://www.w3.org/2000/svg">
<g id="#ffffffff">
<path fill="#ffffff" opacity="1.00" d=" M 0.00 0.00 L 250.00 0.00 L 250.00 250.00 L 0.00 250.00 L 0.00 0.00 M 121.28 19.09 C 112.96 21.06 110.57 32.86 116.45 38.54 C 119.57 41.92 124.67 42.30 128.87 41.16 C 134.92 39.01 138.12 31.54 135.47 25.69 C 133.48 20.13 126.75 17.38 121.28 19.09 M 194.53 48.14 C 189.65 49.28 185.08 52.15 182.45 56.47 C 179.60 60.70 179.07 66.10 180.02 71.02 C 181.86 79.50 190.31 86.02 199.02 85.38 C 208.66 85.52 217.54 76.77 216.87 67.00 C 218.11 55.36 205.61 45.28 194.53 48.14 M 45.29 48.96 C 37.56 51.64 32.31 59.85 33.33 68.02 C 33.31 79.16 45.25 87.64 55.86 85.06 C 64.13 83.40 70.91 75.55 70.59 66.98 C 71.04 60.82 67.81 54.76 62.86 51.20 C 57.85 47.55 51.08 47.53 45.29 48.96 M 98.54 61.67 C 93.30 64.20 91.46 72.02 95.90 76.08 C 98.44 79.20 103.30 79.55 106.66 77.67 C 112.09 74.89 112.39 65.88 107.30 62.62 C 104.85 60.70 101.39 61.08 98.54 61.67 M 143.55 61.69 C 140.66 63.41 138.09 66.43 138.50 70.00 C 138.03 75.32 143.72 79.89 148.86 78.66 C 156.12 77.91 158.38 67.28 152.85 63.04 C 150.36 60.72 146.62 60.99 143.55 61.69 M 67.26 101.90 C 61.87 104.06 59.41 111.91 63.95 116.13 C 66.30 119.53 70.93 119.12 74.49 118.39 C 77.57 116.36 80.08 112.91 79.43 109.04 C 78.80 103.46 72.40 99.84 67.26 101.90 M 174.56 102.59 C 169.14 105.39 168.71 113.90 173.61 117.36 C 176.10 119.39 179.62 118.90 182.58 118.51 C 188.15 116.33 189.66 107.83 185.14 103.93 C 182.49 101.16 177.76 100.45 174.56 102.59 M 121.26 102.84 C 115.88 104.00 110.89 107.25 108.30 112.20 C 105.53 116.50 105.98 121.91 106.58 126.76 C 108.74 133.61 114.88 139.29 122.15 140.09 C 132.82 141.98 143.69 132.81 143.57 121.99 C 144.43 110.44 132.53 100.33 121.26 102.84 M 32.52 128.88 C 24.74 130.99 21.65 141.89 27.25 147.69 C 31.17 152.71 39.20 152.75 43.91 148.86 C 49.42 144.11 48.83 134.19 42.58 130.35 C 39.68 128.29 35.89 128.12 32.52 128.88 M 210.64 128.81 C 203.39 130.65 199.96 140.01 203.96 146.20 C 206.63 151.19 213.16 152.50 218.24 151.02 C 223.12 148.96 226.50 143.61 225.44 138.27 C 224.76 131.37 217.13 126.90 210.64 128.81 M 70.58 133.79 C 67.16 134.94 64.76 138.31 65.08 141.96 C 64.48 146.87 69.11 151.42 74.00 150.79 C 80.88 151.34 85.17 142.30 81.04 137.04 C 78.88 133.44 74.33 132.89 70.58 133.79 M 170.69 133.86 C 167.39 135.54 164.85 139.02 165.33 142.86 C 165.42 148.14 171.01 151.91 176.03 150.69 C 183.27 150.04 185.23 139.25 179.71 135.24 C 177.30 132.98 173.68 133.27 170.69 133.86 M 93.44 159.55 C 87.72 161.17 85.18 169.26 89.34 173.64 C 92.05 177.23 97.62 177.60 101.25 175.29 C 105.57 172.81 105.93 166.42 103.31 162.59 C 101.15 159.50 96.93 158.73 93.44 159.55 M 151.44 159.51 C 146.00 160.63 143.63 167.37 145.98 172.09 C 148.35 177.31 156.42 178.35 160.23 174.20 C 163.57 171.05 163.64 164.93 160.21 161.83 C 158.12 159.25 154.49 158.89 151.44 159.51 M 50.31 165.16 C 44.51 165.51 39.76 171.26 40.30 177.02 C 39.97 183.63 46.72 188.95 53.02 188.48 C 58.56 187.69 63.74 182.85 63.57 177.01 C 64.04 170.10 57.22 163.82 50.31 165.16 M 195.43 165.55 C 190.24 167.05 186.95 172.71 187.50 177.96 C 188.10 183.71 193.37 188.32 199.09 188.53 C 204.79 188.44 210.48 183.76 210.69 177.86 C 211.03 174.49 210.14 170.83 207.56 168.49 C 204.57 165.11 199.61 164.48 195.43 165.55 M 122.33 193.88 C 114.69 194.79 108.17 200.81 106.36 208.22 C 104.60 214.62 107.00 221.75 111.73 226.28 C 116.80 231.18 124.72 232.67 131.30 230.26 C 137.91 228.09 142.60 221.64 143.51 214.87 C 144.26 209.07 141.98 203.17 137.95 199.02 C 133.84 195.20 127.92 193.10 122.33 193.88 Z" />
</g>
<g id="#111111ff">
<path fill="#111111" opacity="1.00" d=" M 121.28 19.09 C 126.75 17.38 133.48 20.13 135.47 25.69 C 138.12 31.54 134.92 39.01 128.87 41.16 C 124.67 42.30 119.57 41.92 116.45 38.54 C 110.57 32.86 112.96 21.06 121.28 19.09 Z" />
<path fill="#111111" opacity="1.00" d=" M 194.53 48.14 C 205.61 45.28 218.11 55.36 216.87 67.00 C 217.54 76.77 208.66 85.52 199.02 85.38 C 190.31 86.02 181.86 79.50 180.02 71.02 C 179.07 66.10 179.60 60.70 182.45 56.47 C 185.08 52.15 189.65 49.28 194.53 48.14 Z" />
<path fill="#111111" opacity="1.00" d=" M 45.29 48.96 C 51.08 47.53 57.85 47.55 62.86 51.20 C 67.81 54.76 71.04 60.82 70.59 66.98 C 70.91 75.55 64.13 83.40 55.86 85.06 C 45.25 87.64 33.31 79.16 33.33 68.02 C 32.31 59.85 37.56 51.64 45.29 48.96 Z" />
<path fill="#111111" opacity="1.00" d=" M 98.54 61.67 C 101.39 61.08 104.85 60.70 107.30 62.62 C 112.39 65.88 112.09 74.89 106.66 77.67 C 103.30 79.55 98.44 79.20 95.90 76.08 C 91.46 72.02 93.30 64.20 98.54 61.67 Z" />
<path fill="#111111" opacity="1.00" d=" M 143.55 61.69 C 146.62 60.99 150.36 60.72 152.85 63.04 C 158.38 67.28 156.12 77.91 148.86 78.66 C 143.72 79.89 138.03 75.32 138.50 70.00 C 138.09 66.43 140.66 63.41 143.55 61.69 Z" />
<path fill="#111111" opacity="1.00" d=" M 67.26 101.90 C 72.40 99.84 78.80 103.46 79.43 109.04 C 80.08 112.91 77.57 116.36 74.49 118.39 C 70.93 119.12 66.30 119.53 63.95 116.13 C 59.41 111.91 61.87 104.06 67.26 101.90 Z" />
<path fill="#111111" opacity="1.00" d=" M 174.56 102.59 C 177.76 100.45 182.49 101.16 185.14 103.93 C 189.66 107.83 188.15 116.33 182.58 118.51 C 179.62 118.90 176.10 119.39 173.61 117.36 C 168.71 113.90 169.14 105.39 174.56 102.59 Z" />
<path fill="#111111" opacity="1.00" d=" M 121.26 102.84 C 132.53 100.33 144.43 110.44 143.57 121.99 C 143.69 132.81 132.82 141.98 122.15 140.09 C 114.88 139.29 108.74 133.61 106.58 126.76 C 105.98 121.91 105.53 116.50 108.30 112.20 C 110.89 107.25 115.88 104.00 121.26 102.84 Z" />
<path fill="#111111" opacity="1.00" d=" M 32.52 128.88 C 35.89 128.12 39.68 128.29 42.58 130.35 C 48.83 134.19 49.42 144.11 43.91 148.86 C 39.20 152.75 31.17 152.71 27.25 147.69 C 21.65 141.89 24.74 130.99 32.52 128.88 Z" />
<path fill="#111111" opacity="1.00" d=" M 210.64 128.81 C 217.13 126.90 224.76 131.37 225.44 138.27 C 226.50 143.61 223.12 148.96 218.24 151.02 C 213.16 152.50 206.63 151.19 203.96 146.20 C 199.96 140.01 203.39 130.65 210.64 128.81 Z" />
<path fill="#111111" opacity="1.00" d=" M 70.58 133.79 C 74.33 132.89 78.88 133.44 81.04 137.04 C 85.17 142.30 80.88 151.34 74.00 150.79 C 69.11 151.42 64.48 146.87 65.08 141.96 C 64.76 138.31 67.16 134.94 70.58 133.79 Z" />
<path fill="#111111" opacity="1.00" d=" M 170.69 133.86 C 173.68 133.27 177.30 132.98 179.71 135.24 C 185.23 139.25 183.27 150.04 176.03 150.69 C 171.01 151.91 165.42 148.14 165.33 142.86 C 164.85 139.02 167.39 135.54 170.69 133.86 Z" />
<path fill="#111111" opacity="1.00" d=" M 93.44 159.55 C 96.93 158.73 101.15 159.50 103.31 162.59 C 105.93 166.42 105.57 172.81 101.25 175.29 C 97.62 177.60 92.05 177.23 89.34 173.64 C 85.18 169.26 87.72 161.17 93.44 159.55 Z" />
<path fill="#111111" opacity="1.00" d=" M 151.44 159.51 C 154.49 158.89 158.12 159.25 160.21 161.83 C 163.64 164.93 163.57 171.05 160.23 174.20 C 156.42 178.35 148.35 177.31 145.98 172.09 C 143.63 167.37 146.00 160.63 151.44 159.51 Z" />
<path fill="#111111" opacity="1.00" d=" M 50.31 165.16 C 57.22 163.82 64.04 170.10 63.57 177.01 C 63.74 182.85 58.56 187.69 53.02 188.48 C 46.72 188.95 39.97 183.63 40.30 177.02 C 39.76 171.26 44.51 165.51 50.31 165.16 Z" />
<path fill="#111111" opacity="1.00" d=" M 195.43 165.55 C 199.61 164.48 204.57 165.11 207.56 168.49 C 210.14 170.83 211.03 174.49 210.69 177.86 C 210.48 183.76 204.79 188.44 199.09 188.53 C 193.37 188.32 188.10 183.71 187.50 177.96 C 186.95 172.71 190.24 167.05 195.43 165.55 Z" />
<path fill="#111111" opacity="1.00" d=" M 122.33 193.88 C 127.92 193.10 133.84 195.20 137.95 199.02 C 141.98 203.17 144.26 209.07 143.51 214.87 C 142.60 221.64 137.91 228.09 131.30 230.26 C 124.72 232.67 116.80 231.18 111.73 226.28 C 107.00 221.75 104.60 214.62 106.36 208.22 C 108.17 200.81 114.69 194.79 122.33 193.88 Z" />
</g>
</svg>

<?xml version="1.0" encoding="utf-8"?>
<!-- Generator: Adobe Illustrator 26.0.3, SVG Export Plug-In . SVG Version: 6.00 Build 0)  -->
<svg version="1.1" id="Layer_1" xmlns="http://www.w3.org/2000/svg" xmlns:xlink="http://www.w3.org/1999/xlink" x="0px" y="0px"
	 viewBox="0 0 250 250" style="enable-background:new 0 0 250 250;" xml:space="preserve">
<style type="text/css">
	.st0{fill:#111111;}
</style>
<g id="_x23_111111ff">
	<path class="st0" d="M121.3,19.1c5.5-1.7,12.2,1,14.2,6.6c2.6,5.9-0.6,13.3-6.6,15.5c-4.2,1.1-9.3,0.8-12.4-2.6
		C110.6,32.9,113,21.1,121.3,19.1z"/>
	<path class="st0" d="M194.5,48.1c11.1-2.9,23.6,7.2,22.3,18.9c0.7,9.8-8.2,18.5-17.8,18.4c-8.7,0.6-17.2-5.9-19-14.4
		c-0.9-4.9-0.4-10.3,2.4-14.5C185.1,52.2,189.6,49.3,194.5,48.1z"/>
	<path class="st0" d="M45.3,49c5.8-1.4,12.6-1.4,17.6,2.2c4.9,3.6,8.2,9.6,7.7,15.8c0.3,8.6-6.5,16.4-14.7,18.1
		c-10.6,2.6-22.5-5.9-22.5-17C32.3,59.8,37.6,51.6,45.3,49z"/>
	<path class="st0" d="M98.5,61.7c2.8-0.6,6.3-1,8.8,1c5.1,3.3,4.8,12.3-0.6,15c-3.4,1.9-8.2,1.5-10.8-1.6
		C91.5,72,93.3,64.2,98.5,61.7z"/>
	<path class="st0" d="M143.6,61.7c3.1-0.7,6.8-1,9.3,1.4c5.5,4.2,3.3,14.9-4,15.6c-5.1,1.2-10.8-3.3-10.4-8.7
		C138.1,66.4,140.7,63.4,143.6,61.7z"/>
	<path class="st0" d="M67.3,101.9c5.1-2.1,11.5,1.6,12.2,7.1c0.7,3.9-1.9,7.3-4.9,9.3c-3.6,0.7-8.2,1.1-10.5-2.3
		C59.4,111.9,61.9,104.1,67.3,101.9z"/>
	<path class="st0" d="M174.6,102.6c3.2-2.1,7.9-1.4,10.6,1.3c4.5,3.9,3,12.4-2.6,14.6c-3,0.4-6.5,0.9-9-1.2
		C168.7,113.9,169.1,105.4,174.6,102.6z"/>
	<path class="st0" d="M121.3,102.8c11.3-2.5,23.2,7.6,22.3,19.2c0.1,10.8-10.8,20-21.4,18.1c-7.3-0.8-13.4-6.5-15.6-13.3
		c-0.6-4.8-1.1-10.3,1.7-14.6C110.9,107.2,115.9,104,121.3,102.8z"/>
	<path class="st0" d="M32.5,128.9c3.4-0.8,7.2-0.6,10.1,1.5c6.2,3.8,6.8,13.8,1.3,18.5c-4.7,3.9-12.7,3.9-16.7-1.2
		C21.6,141.9,24.7,131,32.5,128.9z"/>
	<path class="st0" d="M210.6,128.8c6.5-1.9,14.1,2.6,14.8,9.5c1.1,5.3-2.3,10.7-7.2,12.8c-5.1,1.5-11.6,0.2-14.3-4.8
		C200,140,203.4,130.6,210.6,128.8z"/>
	<path class="st0" d="M70.6,133.8c3.8-0.9,8.3-0.3,10.5,3.2c4.1,5.3-0.2,14.3-7,13.8c-4.9,0.6-9.5-3.9-8.9-8.8
		C64.8,138.3,67.2,134.9,70.6,133.8z"/>
	<path class="st0" d="M170.7,133.9c3-0.6,6.6-0.9,9,1.4c5.5,4,3.6,14.8-3.7,15.4c-5,1.2-10.6-2.6-10.7-7.8
		C164.9,139,167.4,135.5,170.7,133.9z"/>
	<path class="st0" d="M93.4,159.6c3.5-0.8,7.7-0.1,9.9,3c2.6,3.8,2.3,10.2-2.1,12.7c-3.6,2.3-9.2,1.9-11.9-1.6
		C85.2,169.3,87.7,161.2,93.4,159.6z"/>
	<path class="st0" d="M151.4,159.5c3.1-0.6,6.7-0.3,8.8,2.3c3.4,3.1,3.4,9.2,0,12.4c-3.8,4.2-11.9,3.1-14.2-2.1
		C143.6,167.4,146,160.6,151.4,159.5z"/>
	<path class="st0" d="M50.3,165.2c6.9-1.3,13.7,4.9,13.3,11.8c0.2,5.8-5,10.7-10.5,11.5c-6.3,0.5-13-4.8-12.7-11.5
		C39.8,171.3,44.5,165.5,50.3,165.2z"/>
	<path class="st0" d="M195.4,165.6c4.2-1.1,9.1-0.4,12.1,2.9c2.6,2.3,3.5,6,3.1,9.4c-0.2,5.9-5.9,10.6-11.6,10.7
		c-5.7-0.2-11-4.8-11.6-10.6C186.9,172.7,190.2,167.1,195.4,165.6z"/>
	<path class="st0" d="M122.3,193.9c5.6-0.8,11.5,1.3,15.6,5.1c4,4.1,6.3,10.1,5.6,15.8c-0.9,6.8-5.6,13.2-12.2,15.4
		c-6.6,2.4-14.5,0.9-19.6-4c-4.7-4.5-7.1-11.7-5.4-18.1C108.2,200.8,114.7,194.8,122.3,193.9z"/>
</g>
</svg>
